X: 42897
T: Will You Come Down To Limerick
R: slip jig
M: 9/8
K: Gmajor
|:d|cAG GDG G2d|cAG GE/F/G Add|cAG GDG G2A|1 B/c/de g/f/ed cAd:|2 B/c/de g/f/ed cA^F|
|:de^f gaf g3|de^f gag fed|cde =fge =f3|cde =fed cA^F|
de^f gaf g3|de^f gag fga|bgg ag^f g2e|g/f/ed cAG ^FGA|
|:B2d cA^F G3|B3 GBd cBA|BDD ADD G3|1 ^FAd g/f/ed cAG:|2 ^FAd =fed cAd|
|:cAG GDG G2d|cAG {AGA}GFG Add|cAG GDG G2d|1 B/c/de {f/g/f/}fed cAd:|2 B/c/de {f/g/f/}fed cAG||
|:def gc/A/f g3|def gbg afd|cde =fge =f3|cde =fed cAG|
def gc/A/f g3|def gbg fga|bgg ag^f g2e|g/f/ed cAG ^FGA||
|:BBG AGF G2A|B3 GBd cAG|BBG AGF G2D|B/c/de fed cAd|
BF/G/B AF/G/A G2D|BF/G/B GBd cAG|BDD ADD G3|1 ^FAd g/f/ed cAG:|2 ^FAd =fed cAd|

